X:1
T:Jesus Is Coming Again
T:George E. Lee
T:Jesus Is Coming Again
T:Public Domain
T:Public Domain
C:George E. Lee
Z:Public Domain
%%score ( 1 2 ) ( 3 4 )
L:1/8
M:4/4
K:A
V:1 treble 
V:2 treble 
V:3 bass 
V:4 bass 
V:1
 [EA]2 [EA]>[EA] [EA] [EA]2 [EA] | [GB]2 [GB]>[GB] [GB]4 | [EA]2 [EA]>[EA] [Ec]2 [EB][^DA] | %3
w: 1.~Lift up the trum- pet, and|loud let it ring:|Je- sus is com- ing a-|
w: 2.~Ech- o it, hill- tops; pro-|claim it, ye plains:|Je- sus is com- ing a-|
w: 3.~Heav- ings of earth, tell the|vast, wond- ering throng:|Je- sus is com- ing a-|
w: 4.~Na- tions are an- gry– by|this we do know|Je- sus is com- ing a-|
 [EB]6 z2 | [EA]2 [EA]>[EA] [EA] [EA]2 [EA] | [GB]2 [=Gc]>[Gc] [Fd]4 | %6
w: gain!|Cheer up, ye pil- grims, be|joy- ful and sing:|
w: gain!|Com- ing in glo- ry, the|Lamb that was slain;|
w: gain!|Tem- pests and whirl- winds, the|an- them pro- long;|
w: gain!|Knowl- edge in- creas- es; men|run to and fro;|
 F2 [Fd]>[FB] [EA]2 [DG]>[DG] | [CA]6 z2 ||"^Refrain" [Ec]2 [Ec]>[Ec] [Ec]4 | %9
w: Je- sus is com- ing a-|||
w: Je- sus is com- ing a-|Com-|ing a- gain, com-|
w: Je- sus is com- ing a-|||
w: Je- sus is com- ing a-|||
 [Fd]2 [Fd]>[Fd] [GB]4 | [Ec]2 [Fd]>[FB] [EA]2 [DG]>[DG] | [CA]6 z2 |] %12
w: |||
w: ing a- gain, Je-|sus is com- ing a- gain!||
w: |||
w: |||
V:2
 x8 | x8 | x8 | x8 | x8 | x8 | F2 x6 | x8 || x8 | x8 | x8 | x8 |] %12
w: ||||||gain!||||||
w: ||||||gain!||||||
w: ||||||gain!||||||
w: ||||||gain!||||||
V:3
 [A,C]2 [A,C]>[A,C] [A,C] [A,C]2 [A,C] | [E,E]2 [E,E]>[E,E] [E,E]4 | %2
 [A,C]2 [A,C]>[A,C] A,2 [G,B,][F,B,] | [E,G,]6 z2 | [A,C]2 [A,C]>[A,C] [A,C] [A,C]2 [A,C] | %5
 [E,E]2 [A,E]>[A,E] [D,D]4 | [D,A,]2 [D,A,]>[D,D] [E,C]2 [E,B,]>[E,B,] | [A,,A,]6 z2 || %8
 A,2 A,>A, A,4 | [D,A,]2 [D,A,]>[D,A,] [E,E]4 | A,2 [D,A,]>[D,D] [E,C]2 [E,B,]>[E,B,] | %11
 [A,,A,]6 z2 |] %12
V:4
 x8 | x8 | x4 A,2 x2 | x8 | x8 | x8 | x8 | x8 || A,2 A,>A, A,4 | x8 | A,2 x6 | x8 |] %12

